X: 62
T:Ymdaith Bronwil
T:Bronwil's March
M:C
L:1/8
Q:150
S:Cadw Twmpath Collection
R:March
A:Wales
Z:brian_martin12345@yahoo.com
K:G
d2|g4d2(3Bdg|e2e>ee2cB|A2A>A d>e dc|B2GGG2d2|
g4d2(3Bdg|a3fd2g>a|be fg f2e2|d2d>dd2:||
dc|B2B2ed cB|d2a>aa2cB|A2A2dc BA|B2g>gg2d2|
g3b ag fe|ed ddd3e|ed dd df fa|g2g>gg2:||
